static/logos/mercedes-glyph-color.svg

<svg width="32" height="32" viewBox="0 0 32 32" fill="none" xmlns="http://www.w3.org/2000/svg">
<path fill-rule="evenodd" clip-rule="evenodd" d="M30 16C30 8.3 23.7 2 16 2C8.3 2 2 8.3 2 16C2 23.7 8.3 30 16 30C23.7 30 30 23.7 30 16ZM16 27.725C19.1063 27.725 22.0813 26.5 24.2688 24.3125C24.9775 23.6037 25.5803 22.8243 26.073 21.9911L15.9563 17.8375L5.90192 21.9655C6.39428 22.7988 6.99228 23.5735 7.6875 24.2687C9.91875 26.5 12.8938 27.725 16 27.725ZM5.62145 21.4629C4.74458 19.7961 4.275 17.9232 4.275 16C4.275 12.8937 5.5 9.91874 7.73125 7.77499C9.81269 5.69355 12.6071 4.48355 15.5492 4.3711L14.2063 14.8625L5.62145 21.4629ZM16.138 4.36327C19.193 4.39774 22.0706 5.57681 24.2688 7.77499C26.4563 9.96249 27.6813 12.9375 27.6813 16.0437C27.6813 17.9614 27.231 19.8124 26.3615 21.4732C24.8873 20.3034 17.9688 14.8188 17.9688 14.8188L16.138 4.36327Z" fill="#283544"/>
</svg>

<svg xmlns="http://www.w3.org/2000/svg" width="64" height="64" fill="none" viewBox="0 0 32 32"><path fill="#283544" fill-rule="evenodd" d="M30 16c0-7.7-6.3-14-14-14S2 8.3 2 16s6.3 14 14 14 14-6.3 14-14M16 27.725a11.69 11.69 0 0 0 10.073-5.734l-10.117-4.154-10.054 4.128c.492.834 1.09 1.608 1.785 2.304A11.72 11.72 0 0 0 16 27.725M5.621 21.463A11.7 11.7 0 0 1 4.275 16c0-3.106 1.225-6.081 3.456-8.225a11.68 11.68 0 0 1 7.818-3.404l-1.343 10.492zm10.517-17.1c3.055.035 5.933 1.214 8.13 3.412a11.69 11.69 0 0 1 3.413 8.269c0 1.917-.45 3.768-1.32 5.43l-8.392-6.655z" clip-rule="evenodd"/></svg>
